assets/Fishing pole/Flat/fishing_pole_flat.svg

<svg width="32" height="32" viewBox="0 0 32 32" fill="none" xmlns="http://www.w3.org/2000/svg">
<path d="M10 14V8H11V14H10Z" fill="#D3D3D3"/>
<path d="M9 13.5C9 13.2239 9.22386 13 9.5 13H11.5C11.7761 13 12 13.2239 12 13.5V13.5C12 13.7761 11.7761 14 11.5 14H9.5C9.22386 14 9 13.7761 9 13.5V13.5Z" fill="#0074BA"/>
<path d="M11.7716 8.29596C11.3323 8.9977 10.4074 9.21086 9.7052 8.772C9.0027 8.33293 8.78914 7.40751 9.2282 6.705L9.22886 6.70395L9.22958 6.7028L9.23119 6.70023L9.23514 6.69398L9.24591 6.67713C9.25436 6.66399 9.26536 6.64708 9.2789 6.62664C9.30597 6.58577 9.34326 6.53073 9.39065 6.46353C9.48534 6.32929 9.62103 6.14564 9.79697 5.92911C10.1474 5.49784 10.6656 4.92604 11.3465 4.35263C12.7022 3.21103 14.7827 2 17.5002 2C21.7588 2 26.0002 5.60345 26.0002 10.5V28.5C26.0002 29.3284 25.3286 30 24.5002 30C23.6718 30 23.0002 29.3284 23.0002 28.5V10.5C23.0002 7.39655 20.2416 5 17.5002 5C15.7177 5 14.2982 5.78897 13.2789 6.64737C12.7723 7.07396 12.3843 7.50216 12.1253 7.82089C11.9966 7.97936 11.9018 8.10821 11.8422 8.19272C11.8124 8.2349 11.7916 8.26579 11.7798 8.28352L11.7691 8.29992L11.771 8.29683L11.7716 8.29596Z" fill="#6D4534"/>
<path d="M25 20.5C25 22.433 23.433 24 21.5 24C19.567 24 18 22.433 18 20.5C18 18.567 19.567 17 21.5 17C23.433 17 25 18.567 25 20.5Z" fill="#BEBEBE"/>
<path d="M21.5 19.13C21.8452 19.13 22.125 18.8502 22.125 18.505C22.125 18.1598 21.8452 17.88 21.5 17.88C21.1548 17.88 20.875 18.1598 20.875 18.505C20.875 18.8502 21.1548 19.13 21.5 19.13Z" fill="#636363"/>
<path d="M19.5 21.13C19.8452 21.13 20.125 20.8502 20.125 20.505C20.125 20.1598 19.8452 19.88 19.5 19.88C19.1548 19.88 18.875 20.1598 18.875 20.505C18.875 20.8502 19.1548 21.13 19.5 21.13Z" fill="#636363"/>
<path d="M23.5 21.13C23.8452 21.13 24.125 20.8502 24.125 20.505C24.125 20.1598 23.8452 19.88 23.5 19.88C23.1548 19.88 22.875 20.1598 22.875 20.505C22.875 20.8502 23.1548 21.13 23.5 21.13Z" fill="#636363"/>
<path d="M22.125 22.505C22.125 22.8502 21.8452 23.13 21.5 23.13C21.1548 23.13 20.875 22.8502 20.875 22.505C20.875 22.1598 21.1548 21.88 21.5 21.88C21.8452 21.88 22.125 22.1598 22.125 22.505Z" fill="#636363"/>
<path d="M9 27C9 26.5 6 25 6 18.5H15C15 25 12 26.5 12 27C12 27.5 12 27.5 12 27.5C12 27.6449 12.2521 27.6638 12.6102 27.6906C13.4872 27.7563 15 27.8697 15 30H12.5C11.5 30 10.5 29 10.5 28.5C10.5 29 9.5 30 8.5 30H6C6 27.8697 7.51275 27.7563 8.38983 27.6906C8.74789 27.6638 9 27.6449 9 27.5C9 27.5 9 27.5 9 27Z" fill="#00A6ED"/>
<path d="M15 18.5C15 20.9853 12.9853 23 10.5 23C8.01472 23 6 20.9853 6 18.5C6 16.0147 8.01472 14 10.5 14C12.9853 14 15 16.0147 15 18.5Z" fill="#26EAFC"/>
<path d="M11 17.5C11 17.2239 11.2239 17 11.5 17H12.5C12.7761 17 13 17.2239 13 17.5V17.5C13 17.7761 12.7761 18 12.5 18H11.5C11.2239 18 11 17.7761 11 17.5V17.5Z" fill="#533566"/>
</svg>

<svg xmlns="http://www.w3.org/2000/svg" width="32" height="32" fill="none"><path fill="#D3D3D3" d="M10 14V8h1v6h-1Z"/><path fill="#0074BA" d="M9 13.5a.5.5 0 0 1 .5-.5h2a.5.5 0 0 1 0 1h-2a.5.5 0 0 1-.5-.5Z"/><path fill="#6D4534" d="M11.772 8.296a1.5 1.5 0 0 1-2.544-1.591v-.001l.002-.001.001-.003.004-.006.01-.017a4.468 4.468 0 0 1 .146-.213c.094-.135.23-.318.406-.535.35-.431.869-1.003 1.55-1.576C12.702 3.21 14.783 2 17.5 2 21.76 2 26 5.603 26 10.5v18a1.5 1.5 0 0 1-3 0v-18C23 7.397 20.242 5 17.5 5c-1.782 0-3.202.789-4.221 1.647a8.844 8.844 0 0 0-1.154 1.174 6.97 6.97 0 0 0-.345.463l-.01.016.001-.003v-.001Z"/><path fill="#BEBEBE" d="M25 20.5a3.5 3.5 0 1 1-7 0 3.5 3.5 0 0 1 7 0Z"/><path fill="#636363" d="M21.5 19.13a.625.625 0 1 0 0-1.25.625.625 0 0 0 0 1.25ZM19.5 21.13a.625.625 0 1 0 0-1.25.625.625 0 0 0 0 1.25ZM23.5 21.13a.625.625 0 1 0 0-1.25.625.625 0 0 0 0 1.25ZM22.125 22.505a.625.625 0 1 1-1.25 0 .625.625 0 0 1 1.25 0Z"/><path fill="#00A6ED" d="M9 27c0-.5-3-2-3-8.5h9c0 6.5-3 8-3 8.5v.5c0 .145.252.164.61.19.877.066 2.39.18 2.39 2.31h-2.5c-1 0-2-1-2-1.5 0 .5-1 1.5-2 1.5H6c0-2.13 1.513-2.244 2.39-2.31.358-.026.61-.045.61-.19V27Z"/><path fill="#26EAFC" d="M15 18.5a4.5 4.5 0 1 1-9 0 4.5 4.5 0 0 1 9 0Z"/><path fill="#533566" d="M11 17.5a.5.5 0 0 1 .5-.5h1a.5.5 0 0 1 0 1h-1a.5.5 0 0 1-.5-.5Z"/></svg>
